images/mode.svg

<svg width="32" height="32" viewBox="0 0 32 32" fill="none" xmlns="http://www.w3.org/2000/svg">
<rect width="32" height="32" rx="16" fill="white" fill-opacity="0.2"/>
<path d="M22.65 8.59003C20.89 6.99003 18.56 6.03003 16 6.03003C10.5 6.03003 6.03003 10.5 6.03003 16C6.03003 21.5 10.5 25.97 16 25.97C18.56 25.97 20.89 25.01 22.65 23.41C24.69 21.6 25.97 18.94 25.97 16C25.97 13.06 24.69 10.4 22.65 8.59003ZM15.97 20.39C15.95 22.04 14.72 22.44 13.57 21.98C11.2 21.03 9.53003 18.71 9.53003 16C9.53003 13.29 11.2 10.97 13.57 10.01C14.72 9.55003 15.95 9.96003 15.97 11.6V20.39Z" fill="white"/>
</svg>

<svg xmlns="http://www.w3.org/2000/svg" width="32" height="32" fill="none"><rect width="32" height="32" fill="#fff" fill-opacity=".2" rx="16"/><path fill="#fff" d="M22.65 8.59A9.836 9.836 0 0 0 16 6.03c-5.5 0-9.97 4.47-9.97 9.97 0 5.5 4.47 9.97 9.97 9.97 2.56 0 4.89-.96 6.65-2.56A9.89 9.89 0 0 0 25.97 16c0-2.94-1.28-5.6-3.32-7.41Zm-6.68 11.8c-.02 1.65-1.25 2.05-2.4 1.59A6.439 6.439 0 0 1 9.53 16c0-2.71 1.67-5.03 4.04-5.99 1.15-.46 2.38-.05 2.4 1.59v8.79Z"/></svg>
